main/svg/zigzagBroken.svg

<svg xmlns="http://www.w3.org/2000/svg" width="32" height="32"><path d="m2.004 4 1.992-1.996 6 6-2.004 2ZM20 4l-2.004-1.996L12.004 8l2.004 2Zm1.996 0L24 2.004l6 6-2.004 2ZM2.004 18 4 20l6-6-2.004-2ZM20 18l-2.004 2L12 14l2.004-2Zm1.996 0L24 20l6-6-2.004-2ZM2.004 24 4 21.996l6 6L7.996 30ZM20 24l-2.004-2.004-5.996 6L14.004 30Zm1.996 0L24 21.996l5.996 6-2 2.004Zm0 0" style="stroke:none;fill-rule:nonzero;fill:#000;fill-opacity:1"/></svg>

<svg xmlns="http://www.w3.org/2000/svg" width="32" height="32"><path d="m2 4 2-2 6 6-2 2Zm18 0-2-2-6 6 2 2Zm2 0 2-2 6 6-2 2ZM2 18l2 2 6-6-2-2Zm18 0-2 2-6-6 2-2Zm2 0 2 2 6-6-2-2ZM2 24l2-2 6 6-2 2Zm18 0-2-2-6 6 2 2Zm2 0 2-2 6 6-2 2Zm0 0" style="stroke:none;fill-rule:nonzero;fill:#000;fill-opacity:1"/></svg>
